X: 98
T: Rakes of Mallow
M: 4/4
K: G
L: 1/4
"G" G B G B | G B c/B/ A/G/ | "D" F A F A | F A d/c/ B/A/ |
"G" G B G B | G B d3/2 B/ | "C" c/B/ A/G/ "D" F/G/ A/c/ | "G" B G G2 :|
|: g f/e/ d c | B c d2 | g f/e/ d c | B d "D" A2 |
"G" g f/e/ d c | B c d3/2 B/ | "C" c/B/ A/G/ "D" F/G/ A/c/ |1 "G" B G G2 :|2 "G" B d g2 :|

